X:1
T:Piano Étude after Paganini's 13th Caprice
T:Piano Étude after Paganini's 13th Caprice
T:Op. 3, No. 4
T:Robert Schumann
C:Robert Schumann
%%score { ( 1 3 4 ) | ( 2 5 6 ) }
L:1/8
Q:1/4=130
M:6/8
K:Bb
V:1 treble nm="Piano" snm="Pno."
V:3 treble 
V:4 treble 
V:2 bass 
V:5 bass 
V:6 bass 
V:1
"^Allegro"!p! (.[df].[eg]) | ([df][bd'])(.[a^c'] .[a=c'].[^g=b]"_dim.".[=g_b] | %2
 .[^fa].[=f_a].[=eg] .[_e_g].[df].[ce] | .[Bd]) z ([Fc] [DB]) z ([Fc] | %4
 !>![Bd]3) [DB](.[df].[eg]) | ([df][bd'])(.[a^c'] .[a=c'].[^g=b].[=g_b] | %6
 .[^fa].[=f_a].[=eg] .[_e_g].[df].[ce] | .[Bd]) z ([Fc] [DB]) z ([FA] | B2) z z :: ([FA][GB] | %10
 [FA])!>![bd'][ac'] ([FA][GB][FA]) | !>![gb][fa]([FA] [GB][FA])!>![bd'] | %12
 [ac']([FA][GB] [FA])!>![gb][fa] | ([FA][GB][FA]) !fermata![ac'f'] (.[df].[eg]) | %14
 ([df][bd'])(.[a^c'] .[a=c'].[^g=b].[=g_b] | %15
"_delicatamente" !arpeggio!.[^fa]!arpeggio!.[=f_a].[=eg] !arpeggio!.[_e_g].[df].e | %16
 .d) z!p! ([Fc] [DB]) z [EF-A] | B2 z z ::[Q:1/4=120]"^Minore\nUn poco più lento"!f! DD | %19
 (G/^F/G/).G,/.d/.D/ (G/F/G/).G,/.d/.D/ | (G/^F/G/)G,/ (.g/.G/ ^f/^F/=f/=F/=e/=E/ | %21
 _e/E/d/D/^c/^C/!>(! =c/=C/B/B,/A/A,/)!>)! |!<(! [G,G]3!<)!!>(! [^F,D^F]DD!>)! | %23
 (G/^F/G/).G,/.d/.D/ (G/F/G/).G,/.d/.D/ | (G/^F/G/)G,/ .g/.G/!<(! ^f/F/=f/=F/=e/=E/!<)! | %25
 _e/E/d/D/^c/^C/ =c/=C/B/B,/A/A,/ | [G,G]3 z :: .d'.d' | %28
 (g'/^f'/g'/).g/.[=bd']/.g/ (c'/b/c'/).c/.[eg]/.c/ | %29
 (=f'/=e'/f'/).f/.[ac']/.f/ (b/a/b/).B/.[df]/.B/ | %30
 (_e'/d'/e'/).e/.[gb]/.e/!<(! (a/^g/a/).A/.[^fd']/.d/!<)! | %31
!f! !>![gb]/ z/ !>![gb]/ z/ !>![gb]/ z/ [^fd'] .D.D | %32
!f! (!>!G/^F/G/).G,/.d/.D/ (!>!G/F/G/).G,/.d/.D/ | (!>!G/^F/G/)G,/(!>!g/G/ =f/=F/e/E/)(!>!a/A/ | %34
 g/"_cresc."G/^f/^F/)(!>!b/B/ a/A/g/G/)(=c'/c/ | b/B/a/A/)!>!e'/e/ ^c'/^c/d'/d/!>!e'/e/ | %36
 ^c'/^c/d'/d/!>!e'/e/ c'/c/d'/d/=c'/=c/ |!>(! b/B/a/A/g/G/!>)!!p! (_a/g/a/)._A/.e'/.e/ | %38
 (_a/g/a/)._A/.e'/.e/ (a/g/a/)A/c/A/ |"_cresc." !>!e/_A/!>!_a/A/!>!c'/A/ ^F/^E/F/=A/G/B/ | %40
!f! A/c/B/d/c/e/ x3 |!ff! (g/^f/g/).G/.d/.D/ (!>!G/^F/G/).G,/.d/.D/ | %42
 (!>!G/^F/G/).G,/.d/.D/ (!>!G/F/G/).G,/.d/.D/ | G !^!G,2 z :|!p! (.[df].[eg]) | %45
 ([df][bd'])(.[a^c']!>(! .[a=c'].[^g=b].[=g_b] | .[^fa].[=f_a].[=eg]!>)! .[_e_g].[df].[ce] | %47
 .[Bd]) z ([Fc] [DB]) z [Fc] | [Bd]3 [DB](.[df].[eg]) | ([df][bd'])(.[a^c'] .[a=c'].[^g=b].[=g_b] | %50
 .[^fa].[=f_a].[=eg]) (.[_e_g].[df].[ce] | .[Bd]) z ([Fc] [DB]) z ([EF-A] | B2) z z || ([FA][GB] | %54
 [FA])!>![bd'][ac'] ([FA][GB][FA]) | !>![gb][fa]([FA] [GB][FA])!>![bd'] | %56
 [ac']([FA][GB] [FA])!>![gb][fa] | ([FA][GB][FA]) [ac'f'] (.[df].[eg]) | %58
 ([df][bd']).[a^c']!<(! x2 (._b | .[^fa]!<)!.[=f_a].[=eg] .[_e_g].[df].e) | %60
 [Bd] z ([Fc] [DB]) z ([EF-A] | [DFB]3) z |] %62
V:2
"^dolce" z z | .[B,,F,] z z z2 z | z2 z .[F,F].[=G,F].[=A,F] | .[B,F] z ([F,C] [D,B,]) z ([F,C] | %4
 [B,-D]3 [B,,F,B,]) z z | .[B,,F,] z z z2 z | z2 z .[F,F].[=G,F].[=A,F] | %7
 .[B,F] z ([F,C] [D,B,]) z [F,-C] | B,2 z z :: z z | .F,,(!>!=E,F,) z2 z | (!>!=EF) z z z (!>!=E, | %12
F,) z z z (!>!=EF) | z2 z .[F,,C,A,] z z | .[B,,F,] z z z2 z | (.D.G.C .[F,F].[G,F].[A,F] | %16
 .[B,F]) z ([F,C] [D,B,]) z [F,C] | B,2 z z :: z z | %19
 (G,,/D,/B,/) z/ .D,,/.^F,/ (G,,/D,/B,/) z/ .D,,/.F,/ | %20
 (G,,/D,/B,/) z/ (G,,/B,,/ G,,/A,,/G,,/=B,,/G,,/C,/ | %21
 G,,/G,/G,,/=F,/G,,/=E,/ G,,/_E,/G,,/D,/G,,/C,/) | B,,/A,,/G,,/A,,/B,,/C,/ D,/E,/D,/C,/B,,/A,,/ | %23
 (G,,/D,/B,/) z/ .D,,/.^F,/ (G,,/D,/B,/) z/ .D,,/.F,/ | x3 z/ A,,=B,,(2:1:1C, | %25
 x/ G,F,=E, _E,D,C,/ | (B,,/D,/G,/D,/B,,/G,,/"^ten." G,,,) ::"^dolce" z z | %28
 (G,,/D,/G,/=B,/).[G,F] (C,/G,/C/E/).[G,G] | (F,,/C,/F,/A,/).[F,C] (B,,/D,/F,/B,/).[F,D] | %30
 (C,/G,/C/E/).[G,G] (D,/^F,/A,/D/^F/A/) | z/ !>![G,G]/ z/ !>![E,E]/ z/ !>![^C,^C]/ [D,D] z z | %32
 (G,,/D,/B,/) z/ .D,,/.^F,/ (G,,/D,/B,/) z/ .D,,/.F,/ | %33
 (G,,/D,/B,/) z/ (G,,/B,,/ =B,,/D,/E,/G,/)(A,,/C,/ | %34
 ^C,/=E,/^F,/A,/)(_B,,/D,/ F,/A,/B,/D/)(=C,/_E,/ | G,/B,/C/E/)!>!C/G/ A,/G/B,/G/=C/!>!G/ | %36
 A,/G/B,/G/=C/!>!G/ A,/G/B,/G/E,/G/ | D,/F/C,/E/B,,/D/ (C,/_A,/E/)E,/_D,/E/ | %38
 (C,/_A,/E/)E,/_D,/E/ (C,/A,/E/)C/E/A,/ | x/ !>!E, !>!C, !>!C, x/ A,B, | CDE D2 =C | %41
 B,/D/E/D/^F,/C/ B,,/D,/E,/D,/^F,,/C,/ | B,,/D,/!>!E,/D,/^F,,/C,/ B,,/D,/!>!E,/D,/F,,/C,/ | %43
 B,, z z z :| z z | .[B,,F,] z z z2 z | z2 z (.[F,F].[=G,F].[=A,F] | %47
 .[B,F]) z [F,C] [D,B,] z [F,C] | [B,-D]3 [B,,F,B,] z z | .[B,,F,] z z z2 z | %50
 z2 z (.[F,F].[=G,F].[=A,F] | .[B,F]) z [F,C] [D,B,] z [F,-C] | B,2 z z || z z | %54
 .F,,(!>!=E,F,) z2 z | (!>!=EF) z z z (!>!=E, |F,) z z z (!>!=EF) | z2 z .[F,,C,A,] z z | %58
 .[B,,F,] z z z2 (.A,, | .D,.G,.C .[F,F].[=G,F].[A,F] | .[B,F]) z ([F,C] [D,B,]) z [F,-C] | %61
 [B,,F,B,]3 z |] %62
V:3
 x2 | x6 | x6 | x6 | x6 | x6 | x6 | x3 x2 (E | D2) z x :: x2 | x6 | x6 | x6 | x6 | x6 | %15
 c=B!arpeggio!_B =ABc | B x x x x x | D2 z x :: x2 | x6 | x2 g ^f=f=e | ed^c =cBA | x6 | x6 | %24
 x2 x x/ ^F=F(2:1:1=E | x/ ED^C =CB,A,/ | x4 :: x2 | x6 | x6 | x6 | x6 | x6 | x6 | x6 | x6 | x6 | %37
 x6 | x3 x2 !>!c | x3 x ^FG | ABc d/^c/d/g/d/^f/ | x6 | x6 | x4 :| x2 | x6 | x6 | x6 | x6 | x6 | %50
 x6 | x6 | D2 x x || x2 | x6 | x6 | x6 | x6 | x3 .[a=c'].[^g=b][^c=g] | =c=B_B =ABc | x6 | x4 |] %62
V:4
 x2 | x6 | x6 | x6 | x6 | x6 | x6 | x6 | F3 x :: x2 | x6 | x6 | x6 | x6 | x6 | x6 | x6 | F3 x :: %18
 x2 | x6 | x6 | x6 | x6 | x6 | x6 | x6 | x4 :: x2 | x6 | x6 | x6 | x6 | x6 | x6 | x6 | x6 | x6 | %37
 x6 | x6 | x6 | x6 | x6 | x6 | x4 :| x2 | x6 | x6 | x6 | x6 | x6 | x6 | x6 | F3 x || x2 | x6 | x6 | %56
 x6 | x6 | x6 | x6 | x6 | x4 |] %62
V:5
 x2 | x6 | x6 | x6 | x6 | x6 | x6 | x6 | B,,2 z x :: x2 | x6 | x6 | x6 | x6 | x6 | x6 | x6 | %17
 B,,2 z x :: x2 | x6 | x6 | x6 | x6 | x6 | (G,,/D,/B,/) z/ .G,,/.B,,/ G,,/A,,/G,,/=B,,/G,,/C,/ | %25
 G,,/G,/G,,/F,/G,,/=E,/ G,,/_E,/G,,/D,/G,,/C,/ | x4 :: x2 | x6 | x6 | x6 | x6 | x6 | x6 | x6 | x6 | %36
 x6 | x6 | x3 x x/ C (2:1:1_A, | E/E,/E/C,/E/C,/ E/C/=A,/^F,/B,/G,/ | %40
 C/A,/D/B,/E/C/ D/B,/G,/D,/C/C,/ | G,2 D, G,,2 D,, | G,,2 D,, G,,2 D,, | G,, x x x :| x x | x6 | %46
 x6 | x6 | x6 | x6 | x6 | x6 | [B,,F,]2 x x || x2 | x6 | x6 | x6 | x6 | x6 | x6 | x6 | x4 |] %62
V:6
 x2 | x6 | x6 | x6 | x6 | x6 | x6 | x6 | F,3 x :: x2 | x6 | x6 | x6 | x6 | x6 | x6 | x6 | F,3 x :: %18
 x2 | x6 | x6 | x6 | x6 | x6 | x6 | x6 | x4 :: x2 | x6 | x6 | x6 | x6 | x6 | x6 | x6 | x6 | x6 | %37
 x6 | x6 | x6 | x6 | x6 | x6 | x4 :| x2 | x6 | x6 | x6 | x6 | x6 | x6 | x6 | x4 || x2 | x6 | x6 | %56
 x6 | x6 | x6 | x6 | x6 | x4 |] %62

